Newaita-dark/apps/24/libreoffice-main.svg

<svg height="24" viewBox="0 0 24 24" width="24" xmlns="http://www.w3.org/2000/svg" xmlns:xlink="http://www.w3.org/1999/xlink"><linearGradient id="a" gradientTransform="matrix(.0558089 0 0 .0468795 -1.972752 10.079089)" gradientUnits="userSpaceOnUse" x1="254" x2="254" y1="233.5" y2="254.666672"><stop offset="0" stop-opacity=".27451"/><stop offset="1" stop-opacity="0"/></linearGradient><linearGradient id="b"><stop offset="0" stop-opacity=".313726"/><stop offset=".222222" stop-opacity=".27451"/><stop offset="1" stop-opacity="0"/></linearGradient><radialGradient id="c" cx="450.908936" cy="189.579361" gradientTransform="matrix(.00000013 -.0585994 -.105479 -.00000008 37.857636 47.696499)" gradientUnits="userSpaceOnUse" r="21.166656" xlink:href="#b"/><radialGradient id="d" cx="450.908936" cy="189.579361" gradientTransform="matrix(-.00000013 .0585994 .105479 .00000008 -14.042861 -5.645609)" gradientUnits="userSpaceOnUse" r="21.166656" xlink:href="#b"/><radialGradient id="e" cx="450.908936" cy="189.579361" gradientTransform="matrix(-.00000013 -.0585994 .105479 -.00000008 -14.042861 47.696499)" gradientUnits="userSpaceOnUse" r="21.166656" xlink:href="#b"/><radialGradient id="f" cx="450.908936" cy="189.579361" gradientTransform="matrix(.00000013 .0585994 -.105479 .00000008 37.857635 -5.64561)" gradientUnits="userSpaceOnUse" r="21.166656" xlink:href="#b"/><linearGradient id="g"><stop offset="0" stop-color="#424242"/><stop offset="1" stop-color="#616161"/></linearGradient><linearGradient id="h" gradientUnits="userSpaceOnUse" x1="11.90736" x2="11.90736" xlink:href="#g" y1="21.02539814717" y2="2.17207757661"/><linearGradient id="i" gradientUnits="userSpaceOnUse" x1="11.90736" x2="11.90736" y1="20.03311814717" y2="3.16435757661"><stop offset="0" stop-color="#e0e0e0"/><stop offset="1" stop-color="#eee"/></linearGradient><linearGradient id="j" gradientUnits="userSpaceOnUse" x1="11.90739306248" x2="11.90739306248" xlink:href="#g" y1="21.02544656255" y2="2.17207476572"/><path d="m5.707031 21.027344h12.402344v.992187h-12.402344zm0 0" fill="url(#a)"/><path d="m18.109375 21.027344h1.984375v-.996094h-1.984375zm0 0" fill="url(#c)"/><path d="m5.707031 21.027344h-1.984375v.992187h1.984375zm0 0" fill="url(#d)"/><path d="m5.707031 21.027344h-1.984375v-.996094h1.984375zm0 0" fill="url(#e)"/><path d="m18.109375 21.027344h1.984375v.992187h-1.984375zm0 0" fill="url(#f)"/><path d="m4.960938 2.171875c-.550782 0-.992188.441406-.992188.992187v16.867188c0 .550781.441406.996094.992188.996094h13.890624c.550782 0 .992188-.445313.992188-.996094v-11.289062l-6.566406-6.570313zm10.417968 0 4.464844 4.464844v-3.472657c0-.550781-.441406-.992187-.992188-.992187zm0 0" fill="url(#h)"/><path d="m5.457031 3.164062c-.273437 0-.496093.222657-.496093.496094v15.875c0 .277344.222656.496094.496093.496094h12.898438c.277343 0 .496093-.21875.496093-.496094v-10.417968l-5.953124-5.953126zm0 0" fill="url(#i)"/><path d="m8.929688 7.628906c-.273438 0-.496094.222656-.496094.496094v6.945312c0 .277344.222656.496094.496094.496094h5.953124c.277344 0 .496094-.21875.496094-.496094v-5.035156l-2.605468-2.40625zm4.675781 0 1.773437 1.640625v-1.144531c0-.273438-.21875-.496094-.496094-.496094zm0 0" fill="url(#j)"/><path d="m8.929688 7.628906c-.273438 0-.496094.222656-.496094.496094v.25c0-.277344.222656-.496094.496094-.496094h3.84375l2.605468 2.40625v-.25l-2.605468-2.40625zm4.675781 0 .265625.25h1.011718c.277344 0 .496094.21875.496094.496094v-.25c0-.273438-.21875-.496094-.496094-.496094zm0 0" fill="#fff" fill-opacity=".392157"/><path d="m13.605469 8 1.773437 1.640625v-.371094l-1.371094-1.269531zm-5.171875 7.070312v.375c0 .273438.222656.496094.496094.496094h5.953124c.277344 0 .496094-.222656.496094-.496094v-.375c0 .277344-.21875.496094-.496094.496094h-5.953124c-.273438 0-.496094-.21875-.496094-.496094zm0 0" fill-opacity=".235294"/><path d="m719.931288 615.059407c-22.04514 0-39.996183 17.951043-39.996183 39.996183v559.946557c0 22.360071 17.951043 39.996183 39.996183 39.996183h479.954192c22.36007 0 39.996182-17.636112 39.996182-39.996183v-405.945507l-210.058691-193.997233zm376.971895 0 142.978479 132.270841v-92.274658c0-22.04514-17.636112-39.996183-39.996182-39.996183zm0 0" fill="none" stroke="#212121" stroke-linecap="round" stroke-linejoin="round" stroke-width="11.338583" transform="scale(.0124035)"/><path d="m4.960938 2.171875c-.550782 0-.992188.441406-.992188.992187v.25c0-.550781.441406-.992187.992188-.992187h8.316406l6.566406 6.570313v-.25l-6.566406-6.570313zm10.417968 0 .25.25h3.222656c.550782 0 .992188.441406.992188.992187v-.25c0-.550781-.441406-.992187-.992188-.992187zm0 0" fill="#fff" fill-opacity=".392157"/><path d="m5.457031 3.164062c-.273437 0-.496093.222657-.496093.496094v.371094c0-.273438.222656-.496094.496093-.496094h7.441407l5.953124 5.953125v-.371093l-5.953124-5.953126zm0 0" fill-opacity=".235294"/><path d="m4.960938 19.554688v.234374c0 .273438.222656.496094.496093.496094h12.898438c.277343 0 .496093-.222656.496093-.496094v-.234374c0 .273437-.21875.496093-.496093.496093h-12.898438c-.273437 0-.496093-.222656-.496093-.496093zm0 0" fill="#fff" fill-opacity=".392157"/><path d="m439.958009 255.093763c-22.04514 0-39.996182 17.951043-39.996182 39.996183v1279.877845c0 22.360071 17.951042 39.996183 39.996182 39.996183h1039.900749c22.360071 0 39.996183-17.636112 39.996183-39.996183v-839.919836l-479.954192-479.954192zm0 0" fill="none" stroke="#212121" stroke-linecap="round" stroke-linejoin="round" stroke-width="11.338583" transform="scale(.0124035)"/><path d="m15.378906 2.171875 4.464844 4.464844v-.242188l-4.222656-4.222656zm-11.410156 17.621094v.238281c0 .550781.441406.996094.992188.996094h13.890624c.550782 0 .992188-.445313.992188-.996094v-.238281c0 .546875-.441406.992187-.992188.992187h-13.890624c-.550782 0-.992188-.445312-.992188-.992187zm0 0" fill-opacity=".235294"/><path d="m399.961827 175.101398c-44.405211 0-79.992366 35.587155-79.992366 79.992365v1359.870211c0 44.40521 35.587155 80.307296 79.992366 80.307296h1119.893114c44.405211 0 79.992365-35.902086 79.992365-80.307296v-910.149354l-529.398291-529.713222zm839.919835 0 359.965644 359.965644v-279.973279c0-44.40521-35.587154-79.992365-79.992365-79.992365zm0 0" fill="none" stroke="#212121" stroke-linecap="round" stroke-linejoin="round" stroke-width="11.338583" transform="scale(.0124035)"/></svg>

<?xml version="1.0" encoding="UTF-8"?>
<svg xmlns="http://www.w3.org/2000/svg" xmlns:xlink="http://www.w3.org/1999/xlink" width="24px" height="24px" viewBox="0 0 24 24" version="1.1">
<defs>
<linearGradient id="linear0" gradientUnits="userSpaceOnUse" x1="254" y1="233.5" x2="254" y2="254.666672" gradientTransform="matrix(0.0558089,0,0,0.0468795,-1.972752,10.079089)">
<stop offset="0" style="stop-color:rgb(0%,0%,0%);stop-opacity:0.27451;"/>
<stop offset="1" style="stop-color:rgb(0%,0%,0%);stop-opacity:0;"/>
</linearGradient>
<radialGradient id="radial0" gradientUnits="userSpaceOnUse" cx="450.908936" cy="189.579361" fx="450.908936" fy="189.579361" r="21.166656" gradientTransform="matrix(0.000000130628,-0.0585994,-0.105479,-0.0000000761539,37.857636,47.696499)">
<stop offset="0" style="stop-color:rgb(0%,0%,0%);stop-opacity:0.313726;"/>
<stop offset="0.222222" style="stop-color:rgb(0%,0%,0%);stop-opacity:0.27451;"/>
<stop offset="1" style="stop-color:rgb(0%,0%,0%);stop-opacity:0;"/>
</radialGradient>
<radialGradient id="radial1" gradientUnits="userSpaceOnUse" cx="450.908936" cy="189.579361" fx="450.908936" fy="189.579361" r="21.166656" gradientTransform="matrix(-0.000000130628,0.0585994,0.105479,0.0000000761539,-14.042861,-5.645609)">
<stop offset="0" style="stop-color:rgb(0%,0%,0%);stop-opacity:0.313726;"/>
<stop offset="0.222222" style="stop-color:rgb(0%,0%,0%);stop-opacity:0.27451;"/>
<stop offset="1" style="stop-color:rgb(0%,0%,0%);stop-opacity:0;"/>
</radialGradient>
<radialGradient id="radial2" gradientUnits="userSpaceOnUse" cx="450.908936" cy="189.579361" fx="450.908936" fy="189.579361" r="21.166656" gradientTransform="matrix(-0.000000130628,-0.0585994,0.105479,-0.0000000761539,-14.042861,47.696499)">
<stop offset="0" style="stop-color:rgb(0%,0%,0%);stop-opacity:0.313726;"/>
<stop offset="0.222222" style="stop-color:rgb(0%,0%,0%);stop-opacity:0.27451;"/>
<stop offset="1" style="stop-color:rgb(0%,0%,0%);stop-opacity:0;"/>
</radialGradient>
<radialGradient id="radial3" gradientUnits="userSpaceOnUse" cx="450.908936" cy="189.579361" fx="450.908936" fy="189.579361" r="21.166656" gradientTransform="matrix(0.000000130628,0.0585994,-0.105479,0.0000000761539,37.857635,-5.64561)">
<stop offset="0" style="stop-color:rgb(0%,0%,0%);stop-opacity:0.313726;"/>
<stop offset="0.222222" style="stop-color:rgb(0%,0%,0%);stop-opacity:0.27451;"/>
<stop offset="1" style="stop-color:rgb(0%,0%,0%);stop-opacity:0;"/>
</radialGradient>
<linearGradient id="linear1" gradientUnits="userSpaceOnUse" x1="254" y1="233.5" x2="254" y2="-168.666672" gradientTransform="matrix(0.0468795,0,0,0.0468795,0,10.079087)">
<stop offset="0" style="stop-color:rgb(87.843138%,87.843138%,87.843138%);stop-opacity:1;"/>
<stop offset="1" style="stop-color:rgb(93.333334%,93.333334%,93.333334%);stop-opacity:1;"/>
</linearGradient>
<linearGradient id="linear2" gradientUnits="userSpaceOnUse" x1="413.712219" y1="-474.701691" x2="413.712219" y2="-72.535034" gradientTransform="matrix(0.0468795,0,0,0.0468795,0,10.079087)">
<stop offset="0" style="stop-color:rgb(38.039216%,38.039216%,38.039216%);stop-opacity:1;"/>
<stop offset="1" style="stop-color:rgb(45.882353%,45.882353%,45.882353%);stop-opacity:1;"/>
</linearGradient>
<linearGradient id="linear3" gradientUnits="userSpaceOnUse" x1="248.708328" y1="101.208344" x2="248.708328" y2="-300.958313" gradientTransform="matrix(0.0468795,0,0,0.0468795,0.248071,16.28085)">
<stop offset="0" style="stop-color:rgb(38.039216%,38.039216%,38.039216%);stop-opacity:1;"/>
<stop offset="1" style="stop-color:rgb(45.882353%,45.882353%,45.882353%);stop-opacity:1;"/>
</linearGradient>
</defs>
<g id="surface1">
<path style=" stroke:none;fill-rule:nonzero;fill:url(#linear0);" d="M 5.707031 21.027344 L 18.109375 21.027344 L 18.109375 22.019531 L 5.707031 22.019531 Z M 5.707031 21.027344 "/>
<path style=" stroke:none;fill-rule:nonzero;fill:url(#radial0);" d="M 18.109375 21.027344 L 20.09375 21.027344 L 20.09375 20.03125 L 18.109375 20.03125 Z M 18.109375 21.027344 "/>
<path style=" stroke:none;fill-rule:nonzero;fill:url(#radial1);" d="M 5.707031 21.027344 L 3.722656 21.027344 L 3.722656 22.019531 L 5.707031 22.019531 Z M 5.707031 21.027344 "/>
<path style=" stroke:none;fill-rule:nonzero;fill:url(#radial2);" d="M 5.707031 21.027344 L 3.722656 21.027344 L 3.722656 20.03125 L 5.707031 20.03125 Z M 5.707031 21.027344 "/>
<path style=" stroke:none;fill-rule:nonzero;fill:url(#radial3);" d="M 18.109375 21.027344 L 20.09375 21.027344 L 20.09375 22.019531 L 18.109375 22.019531 Z M 18.109375 21.027344 "/>
<path style=" stroke:none;fill-rule:nonzero;fill:url(#linear1);" d="M 14.929688 2.171875 L 4.960938 2.171875 C 4.410156 2.171875 3.96875 2.613281 3.96875 3.164062 L 3.96875 20.03125 C 3.96875 20.582031 4.410156 21.027344 4.960938 21.027344 L 18.851562 21.027344 C 19.402344 21.027344 19.84375 20.582031 19.84375 20.03125 L 19.84375 6.679688 Z M 14.929688 2.171875 "/>
<path style=" stroke:none;fill-rule:nonzero;fill:url(#linear2);" d="M 14.929688 2.171875 L 19.84375 6.679688 L 19.84375 3.164062 C 19.84375 2.613281 19.402344 2.171875 18.851562 2.171875 Z M 14.929688 2.171875 "/>
<path style=" stroke:none;fill-rule:nonzero;fill:rgb(0%,0%,0%);fill-opacity:0.235294;" d="M 3.96875 19.785156 L 3.96875 20.03125 C 3.96875 20.582031 4.410156 21.027344 4.960938 21.027344 L 18.851562 21.027344 C 19.402344 21.027344 19.84375 20.582031 19.84375 20.03125 L 19.84375 19.785156 C 19.84375 20.335938 19.402344 20.777344 18.851562 20.777344 L 4.960938 20.777344 C 4.410156 20.777344 3.96875 20.335938 3.96875 19.785156 Z M 3.96875 19.785156 "/>
<path style=" stroke:none;fill-rule:nonzero;fill:rgb(100%,100%,100%);fill-opacity:1;" d="M 4.960938 2.171875 C 4.410156 2.171875 3.96875 2.613281 3.96875 3.164062 L 3.96875 3.660156 C 3.96875 3.109375 4.410156 2.667969 4.960938 2.667969 L 14.929688 2.667969 L 19.84375 7.175781 L 19.84375 6.679688 L 14.929688 2.171875 Z M 4.960938 2.171875 "/>
<path style=" stroke:none;fill-rule:nonzero;fill:rgb(100%,100%,100%);fill-opacity:0.392157;" d="M 14.929688 2.171875 L 15.46875 2.667969 L 18.851562 2.667969 C 19.402344 2.667969 19.84375 3.109375 19.84375 3.660156 L 19.84375 3.164062 C 19.84375 2.613281 19.402344 2.171875 18.851562 2.171875 Z M 14.929688 2.171875 "/>
<path style=" stroke:none;fill-rule:nonzero;fill:rgb(0%,0%,0%);fill-opacity:0.235294;" d="M 14.929688 2.171875 L 19.84375 6.679688 L 19.84375 6.265625 L 15.378906 2.171875 Z M 14.929688 2.171875 "/>
<path style="fill:none;stroke-width:11.338583;stroke-linecap:round;stroke-linejoin:round;stroke:rgb(12.941177%,12.941177%,12.941177%);stroke-opacity:1;stroke-miterlimit:4;" d="M 1203.664647 175.101398 L 399.961827 175.101398 C 355.556616 175.101398 319.969461 210.688553 319.969461 255.093763 L 319.969461 1614.963974 C 319.969461 1659.369184 355.556616 1695.27127 399.961827 1695.27127 L 1519.854941 1695.27127 C 1564.260152 1695.27127 1599.847306 1659.369184 1599.847306 1614.963974 L 1599.847306 538.531278 Z M 1203.664647 175.101398 " transform="matrix(0.0124035,0,0,0.0124035,0,0)"/>
<path style="fill:none;stroke-width:3;stroke-linecap:round;stroke-linejoin:round;stroke:rgb(12.941177%,12.941177%,12.941177%);stroke-opacity:1;stroke-miterlimit:4;" d="M 318.469588 -168.671091 L 423.292911 -72.513607 L 423.292911 -147.506445 C 423.292911 -159.255323 413.877143 -168.671091 402.128265 -168.671091 Z M 318.469588 -168.671091 " transform="matrix(0.0468795,0,0,0.0468795,0,10.079087)"/>
<path style=" stroke:none;fill-rule:nonzero;fill:url(#linear3);" d="M 8.929688 7.628906 C 8.65625 7.628906 8.433594 7.851562 8.433594 8.125 L 8.433594 15.070312 C 8.433594 15.347656 8.65625 15.566406 8.929688 15.566406 L 14.882812 15.566406 C 15.160156 15.566406 15.378906 15.347656 15.378906 15.070312 L 15.378906 10.035156 L 12.773438 7.628906 Z M 13.605469 7.628906 L 15.378906 9.269531 L 15.378906 8.125 C 15.378906 7.851562 15.160156 7.628906 14.882812 7.628906 Z M 13.605469 7.628906 "/>
<path style=" stroke:none;fill-rule:nonzero;fill:rgb(100%,100%,100%);fill-opacity:0.392157;" d="M 8.929688 7.628906 C 8.65625 7.628906 8.433594 7.851562 8.433594 8.125 L 8.433594 8.375 C 8.433594 8.097656 8.65625 7.878906 8.929688 7.878906 L 12.773438 7.878906 L 15.378906 10.285156 L 15.378906 10.035156 L 12.773438 7.628906 Z M 13.605469 7.628906 L 13.871094 7.878906 L 14.882812 7.878906 C 15.160156 7.878906 15.378906 8.097656 15.378906 8.375 L 15.378906 8.125 C 15.378906 7.851562 15.160156 7.628906 14.882812 7.628906 Z M 13.605469 7.628906 "/>
<path style=" stroke:none;fill-rule:nonzero;fill:rgb(0%,0%,0%);fill-opacity:0.235294;" d="M 13.605469 8 L 15.378906 9.640625 L 15.378906 9.269531 L 14.007812 8 Z M 8.433594 15.070312 L 8.433594 15.445312 C 8.433594 15.71875 8.65625 15.941406 8.929688 15.941406 L 14.882812 15.941406 C 15.160156 15.941406 15.378906 15.71875 15.378906 15.445312 L 15.378906 15.070312 C 15.378906 15.347656 15.160156 15.566406 14.882812 15.566406 L 8.929688 15.566406 C 8.65625 15.566406 8.433594 15.347656 8.433594 15.070312 Z M 8.433594 15.070312 "/>
<path style="fill:none;stroke-width:11.338583;stroke-linecap:round;stroke-linejoin:round;stroke:rgb(12.941177%,12.941177%,12.941177%);stroke-opacity:1;stroke-miterlimit:4;" d="M 719.931288 615.059407 C 697.886148 615.059407 679.935105 633.01045 679.935105 655.05559 L 679.935105 1215.002147 C 679.935105 1237.362218 697.886148 1254.99833 719.931288 1254.99833 L 1199.88548 1254.99833 C 1222.24555 1254.99833 1239.881662 1237.362218 1239.881662 1215.002147 L 1239.881662 809.05664 L 1029.822971 615.059407 Z M 1096.903183 615.059407 L 1239.881662 747.330248 L 1239.881662 655.05559 C 1239.881662 633.01045 1222.24555 615.059407 1199.88548 615.059407 Z M 1096.903183 615.059407 " transform="matrix(0.0124035,0,0,0.0124035,0,0)"/>
</g>
</svg>
